X:439
T:Lacey's
R:jig
C:Liz Carroll
Z:hn-jig-439
M:6/8
L:1/8
K:Amix
EAA A^ce | ~d3 e^cA | EAA AB=c | DEF ~G3 |
EAA A^ce | g2b age | dB/c/d ecA | ~G3 EAA :|
|: eaa b2a | edB AGE | efg e2d | BAG EDB, |
eaa b2a | edB AGE | GAB d2e | dAG EAA :| 

